Sweet-Rainbow/icons/termius.svg

<?xml version="1.0" encoding="UTF-8" standalone="no"?>
<!-- Generator: Gravit.io -->

<svg
   xmlns:dc="http://purl.org/dc/elements/1.1/"
   xmlns:cc="http://creativecommons.org/ns#"
   xmlns:rdf="http://www.w3.org/1999/02/22-rdf-syntax-ns#"
   xmlns:svg="http://www.w3.org/2000/svg"
   xmlns="http://www.w3.org/2000/svg"
   xmlns:sodipodi="http://sodipodi.sourceforge.net/DTD/sodipodi-0.dtd"
   xmlns:inkscape="http://www.inkscape.org/namespaces/inkscape"
   style="isolation:isolate"
   viewBox="0 0 36 36"
   width="48"
   height="48"
   version="1.1"
   id="svg30"
   sodipodi:docname="termius.svg"
   inkscape:version="0.92.4 (5da689c313, 2019-01-14)">
  <metadata
     id="metadata36">
    <rdf:RDF>
      <cc:Work
         rdf:about="">
        <dc:format>image/svg+xml</dc:format>
        <dc:type
           rdf:resource="http://purl.org/dc/dcmitype/StillImage" />
        <dc:title></dc:title>
      </cc:Work>
    </rdf:RDF>
  </metadata>
  <defs
     id="defs34" />
  <sodipodi:namedview
     pagecolor="#ffffff"
     bordercolor="#666666"
     borderopacity="1"
     objecttolerance="10"
     gridtolerance="10"
     guidetolerance="10"
     inkscape:pageopacity="0"
     inkscape:pageshadow="2"
     inkscape:window-width="640"
     inkscape:window-height="480"
     id="namedview32"
     showgrid="false"
     inkscape:zoom="29.365243"
     inkscape:cx="25.325443"
     inkscape:cy="32"
     inkscape:current-layer="svg30"
     units="px" />
  <linearGradient
     id="_lgradient_0"
     x1="0"
     y1="0.5"
     x2="0.90748805"
     y2="0.92007786"
     gradientTransform="matrix(46.43,0,0,34.39,1,6.1)"
     gradientUnits="userSpaceOnUse">
    <stop
       offset="0%"
       stop-opacity="1"
       style="stop-color:rgb(78,84,200)"
       id="stop2" />
    <stop
       offset="83.88839793817618%"
       stop-opacity="1"
       style="stop-color:rgb(0,114,255)"
       id="stop4" />
  </linearGradient>
  <linearGradient
     id="_lgradient_1"
     x1="0"
     y1="0.5"
     x2="0.90748805"
     y2="0.92007786"
     gradientTransform="matrix(10.19,0,0,10.29,15.14,20.53)"
     gradientUnits="userSpaceOnUse">
    <stop
       offset="0%"
       stop-opacity="1"
       style="stop-color:rgb(78,84,200)"
       id="stop9" />
    <stop
       offset="83.88839793817618%"
       stop-opacity="1"
       style="stop-color:rgb(0,114,255)"
       id="stop11" />
  </linearGradient>
  <linearGradient
     id="_lgradient_2"
     x1="0"
     y1="0.5"
     x2="0.90748805"
     y2="0.92007786"
     gradientTransform="matrix(9.69,0,0,4.061,24.31,28.72)"
     gradientUnits="userSpaceOnUse">
    <stop
       offset="0%"
       stop-opacity="1"
       style="stop-color:rgb(78,84,200)"
       id="stop16" />
    <stop
       offset="83.88839793817618%"
       stop-opacity="1"
       style="stop-color:rgb(0,114,255)"
       id="stop18" />
  </linearGradient>
  <linearGradient
     id="_lgradient_3"
     x1="0"
     y1="0.5"
     x2="0.90748805"
     y2="0.92007786"
     gradientTransform="matrix(4,0,0,4,22.215,36.49)"
     gradientUnits="userSpaceOnUse">
    <stop
       offset="0%"
       stop-opacity="1"
       style="stop-color:rgb(78,84,200)"
       id="stop23" />
    <stop
       offset="83.88839793817618%"
       stop-opacity="1"
       style="stop-color:rgb(0,114,255)"
       id="stop25" />
  </linearGradient>
  <g
     id="g847"
     transform="matrix(0.77536076,0,0,0.77536076,-0.7753608,-0.0621308)">
    <path
       id="path7"
       d="m 34.71,36.32 h 0.14 c 1.17,0 2.32,-0.2 3.42,-0.59 1,-0.36 1.92,-0.89 2.74,-1.58 0.73,-0.62 1.34,-1.38 1.78,-2.24 0.41,-0.82 0.63,-1.72 0.64,-2.63 v -0.07 c 0,-1.05 -0.28,-2.08 -0.79,-2.99 -0.9,-1.56 -2.32,-2.76 -3.071,-3.036 -0.518,-0.19 -0.641,-0.679 -0.275,-1.091 0.616,-0.693 1.326,-2.553 1.336,-4.483 0,-0.56 -0.07,-1.12 -0.19,-1.66 -0.38,-1.68 -1.34,-3.18 -2.71,-4.23 -1.39,-1.06 -3.09,-1.63 -4.85,-1.62 -0.69,0 -1.37,0.08 -2.04,0.25 q -2.95,0.73 -5.107,4.166 c -0.587,0.935 -1.474,0.897 -1.979,-0.084 Q 22.68,12.35 20.69,11.48 c -1.02,-0.45 -2.12,-0.68 -3.24,-0.67 -0.71,0 -1.42,0.08 -2.11,0.25 -1.8,0.44 -3.42,1.45 -4.61,2.88 -1.09,1.29 -1.69,2.91 -1.71,4.59 0,0.48 0.05,0.95 0.16,1.42 0.15,0.72 0.49,1.38 0.49,1.38 0.265,0.309 0.065,0.728 -0.447,0.936 C 8.35,22.62 6.87,23.94 5.94,25.63 5.33,26.74 5,27.98 5,29.25 c 0,0.53 0.06,1.05 0.17,1.57 0.38,1.63 1.31,3.08 2.65,4.09 1.39,1.04 3.08,1.59 4.82,1.58 0.34,0 0.68,-0.02 1.03,-0.06 v 0 c 1.093,-0.132 2.088,0.649 2.22,1.745 v 0 c 0.132,1.096 -0.647,2.093 -1.74,2.225 v 0 c -0.5,0.06 -1,0.09 -1.5,0.09 C 10.04,40.51 7.51,39.67 5.42,38.11 3.33,36.53 1.85,34.26 1.27,31.71 1.09,30.9 1,30.07 1,29.24 1,27.3 1.5,25.4 2.43,23.7 3.14,22.42 4.07,21.27 5.17,20.31 5.07,19.72 5.02,19.11 5.02,18.51 5.04,15.9 5.98,13.37 7.67,11.37 9.4,9.29 11.76,7.82 14.39,7.18 c 1,-0.25 2.02,-0.37 3.05,-0.37 1.67,-0.01 3.33,0.34 4.86,1.01 0.83,0.36 1.61,0.83 2.32,1.38 1.51,-1.32 3.31,-2.25 5.26,-2.73 0.98,-0.25 1.98,-0.37 3,-0.37 2.63,-0.01 5.19,0.85 7.28,2.45 2.12,1.61 3.6,3.92 4.18,6.52 0.19,0.83 0.29,1.69 0.29,2.54 -0.01,1.33 -0.23,2.65 -0.67,3.91 0.85,0.79 1.57,1.71 2.15,2.72 0.86,1.51 1.31,3.22 1.32,4.96 0,0.01 0,0.01 0,0.02 v 0.08 c 0,0.01 0,0.01 0,0.02 -0.02,1.53 -0.39,3.03 -1.07,4.4 -0.69,1.34 -1.63,2.52 -2.78,3.49 -1.17,0.99 -2.52,1.77 -3.97,2.28 -1.53,0.55 -3.14,0.83 -4.77,0.83 0,0 0,0 -0.01,0 h -0.14 c -0.7,-0.01 -1.4,-0.07 -2.08,-0.2 v 0 c -1.087,-0.204 -1.804,-1.25 -1.6,-2.335 v 0 c 0.204,-1.085 1.248,-1.799 2.33,-1.595 v 0 c 0.45,0.08 0.91,0.12 1.37,0.13 0,0 0,0 0,0 z"
       style="fill:url(#_lgradient_0)"
       inkscape:connector-curvature="0" />
    <path
       id="path14"
       d="m 16.5,23.88 v 0 c -0.751,-0.348 -1.078,-1.239 -0.73,-1.99 v 0 c 0.348,-0.751 1.239,-1.078 1.99,-0.73 v 0 l 4.85,2.255 c 1.501,0.698 1.643,2.07 0.317,3.061 L 18.32,29.92 v 0 c -0.662,0.497 -1.603,0.36 -2.1,-0.305 v 0 c -0.497,-0.665 -0.362,-1.604 0.3,-2.095 v 0 l 2.99,-2.24 z"
       style="fill:url(#_lgradient_1)"
       inkscape:connector-curvature="0" />
    <path
       id="path21"
       d="m 31.175,29.36 v 0 c 0.806,-0.353 1.766,-0.031 2.143,0.72 v 0 c 0.376,0.751 0.032,1.647 -0.768,2 v 0 c -0.516,0.22 -1.064,0.4 -1.612,0.52 -0.548,0.11 -1.095,0.18 -1.654,0.18 -0.569,0.01 -1.139,-0.05 -1.708,-0.16 -0.613,-0.12 -1.203,-0.29 -1.783,-0.52 v 0 c -0.819,-0.32 -1.201,-1.201 -0.855,-1.965 v 0 c 0.347,-0.764 1.293,-1.121 2.111,-0.795 v 0 c 0.387,0.15 0.785,0.27 1.204,0.35 0.322,0.06 0.666,0.09 1.009,0.09 0.312,0 0.634,-0.04 0.946,-0.1 0.333,-0.08 0.655,-0.18 0.967,-0.32 z"
       style="fill:url(#_lgradient_2)"
       inkscape:connector-curvature="0" />
    <circle
       id="circle28"
       r="2"
       cy="38.490349"
       cx="24.215"
       style="vector-effect:non-scaling-stroke;fill:url(#_lgradient_3)" />
  </g>
</svg>

<?xml version="1.0" encoding="UTF-8" standalone="no"?><!-- Generator: Gravit.io --><svg xmlns="http://www.w3.org/2000/svg" xmlns:xlink="http://www.w3.org/1999/xlink" style="isolation:isolate" viewBox="0 0 48 48" width="48pt" height="48pt"><linearGradient id="_lgradient_0" x1="0" y1="0.5" x2="0.9074880558539661" y2="0.9200778838291643" gradientTransform="matrix(46.43,0,0,34.39,1,6.1)" gradientUnits="userSpaceOnUse"><stop offset="0%" stop-opacity="1" style="stop-color:rgb(78,84,200)"/><stop offset="83.88839793817618%" stop-opacity="1" style="stop-color:rgb(0,114,255)"/></linearGradient><path d=" M 34.71 36.32 L 34.85 36.32 C 36.02 36.32 37.17 36.12 38.27 35.73 C 39.27 35.37 40.19 34.84 41.01 34.15 C 41.74 33.53 42.35 32.77 42.79 31.91 C 43.2 31.09 43.42 30.19 43.43 29.28 L 43.43 29.21 C 43.43 28.16 43.15 27.13 42.64 26.22 C 41.74 24.66 40.32 23.46 39.569 23.184 C 39.051 22.994 38.928 22.505 39.294 22.093 C 39.91 21.4 40.62 19.54 40.63 17.61 C 40.63 17.05 40.56 16.49 40.44 15.95 C 40.06 14.27 39.1 12.77 37.73 11.72 C 36.34 10.66 34.64 10.09 32.88 10.1 C 32.19 10.1 31.51 10.18 30.84 10.35 Q 27.89 11.08 25.733 14.516 C 25.146 15.451 24.259 15.413 23.754 14.432 Q 22.68 12.35 20.69 11.48 C 19.67 11.03 18.57 10.8 17.45 10.81 C 16.74 10.81 16.03 10.89 15.34 11.06 C 13.54 11.5 11.92 12.51 10.73 13.94 C 9.64 15.23 9.04 16.85 9.02 18.53 C 9.02 19.01 9.07 19.48 9.18 19.95 C 9.33 20.67 9.67 21.33 9.67 21.33 C 9.935 21.639 9.735 22.058 9.223 22.266 C 8.35 22.62 6.87 23.94 5.94 25.63 C 5.33 26.74 5 27.98 5 29.25 C 5 29.78 5.06 30.3 5.17 30.82 C 5.55 32.45 6.48 33.9 7.82 34.91 C 9.21 35.95 10.9 36.5 12.64 36.49 C 12.98 36.49 13.32 36.47 13.67 36.43 L 13.67 36.43 C 14.763 36.298 15.758 37.079 15.89 38.175 L 15.89 38.175 C 16.022 39.271 15.243 40.268 14.15 40.4 L 14.15 40.4 C 13.65 40.46 13.15 40.49 12.65 40.49 C 10.04 40.51 7.51 39.67 5.42 38.11 C 3.33 36.53 1.85 34.26 1.27 31.71 C 1.09 30.9 1 30.07 1 29.24 C 1 27.3 1.5 25.4 2.43 23.7 C 3.14 22.42 4.07 21.27 5.17 20.31 C 5.07 19.72 5.02 19.11 5.02 18.51 C 5.04 15.9 5.98 13.37 7.67 11.37 C 9.4 9.29 11.76 7.82 14.39 7.18 C 15.39 6.93 16.41 6.81 17.44 6.81 C 19.11 6.8 20.77 7.15 22.3 7.82 C 23.13 8.18 23.91 8.65 24.62 9.2 C 26.13 7.88 27.93 6.95 29.88 6.47 C 30.86 6.22 31.86 6.1 32.88 6.1 C 35.51 6.09 38.07 6.95 40.16 8.55 C 42.28 10.16 43.76 12.47 44.34 15.07 C 44.53 15.9 44.63 16.76 44.63 17.61 C 44.62 18.94 44.4 20.26 43.96 21.52 C 44.81 22.31 45.53 23.23 46.11 24.24 C 46.97 25.75 47.42 27.46 47.43 29.2 C 47.43 29.21 47.43 29.21 47.43 29.22 L 47.43 29.3 C 47.43 29.31 47.43 29.31 47.43 29.32 C 47.41 30.85 47.04 32.35 46.36 33.72 C 45.67 35.06 44.73 36.24 43.58 37.21 C 42.41 38.2 41.06 38.98 39.61 39.49 C 38.08 40.04 36.47 40.32 34.84 40.32 C 34.84 40.32 34.84 40.32 34.83 40.32 L 34.69 40.32 C 33.99 40.31 33.29 40.25 32.61 40.12 L 32.61 40.12 C 31.523 39.916 30.806 38.87 31.01 37.785 L 31.01 37.785 C 31.214 36.7 32.258 35.986 33.34 36.19 L 33.34 36.19 C 33.79 36.27 34.25 36.31 34.71 36.32 C 34.71 36.32 34.71 36.32 34.71 36.32 Z " fill="url(#_lgradient_0)"/><linearGradient id="_lgradient_1" x1="0" y1="0.5" x2="0.9074880558539661" y2="0.9200778838291643" gradientTransform="matrix(10.19,0,0,10.29,15.14,20.53)" gradientUnits="userSpaceOnUse"><stop offset="0%" stop-opacity="1" style="stop-color:rgb(78,84,200)"/><stop offset="83.88839793817618%" stop-opacity="1" style="stop-color:rgb(0,114,255)"/></linearGradient><path d=" M 16.5 23.88 L 16.5 23.88 C 15.749 23.532 15.422 22.641 15.77 21.89 L 15.77 21.89 C 16.118 21.139 17.009 20.812 17.76 21.16 L 17.76 21.16 L 22.61 23.415 C 24.111 24.113 24.253 25.485 22.927 26.476 L 18.32 29.92 L 18.32 29.92 C 17.658 30.417 16.717 30.28 16.22 29.615 L 16.22 29.615 C 15.723 28.95 15.858 28.011 16.52 27.52 L 16.52 27.52 L 19.51 25.28 L 16.5 23.88 Z " fill="url(#_lgradient_1)"/><linearGradient id="_lgradient_2" x1="0" y1="0.5" x2="0.9074880558539661" y2="0.9200778838291643" gradientTransform="matrix(9.69,0,0,4.061,24.31,28.72)" gradientUnits="userSpaceOnUse"><stop offset="0%" stop-opacity="1" style="stop-color:rgb(78,84,200)"/><stop offset="83.88839793817618%" stop-opacity="1" style="stop-color:rgb(0,114,255)"/></linearGradient><path d=" M 31.175 29.36 L 31.175 29.36 C 31.981 29.007 32.941 29.329 33.318 30.08 L 33.318 30.08 C 33.694 30.831 33.35 31.727 32.55 32.08 L 32.55 32.08 C 32.034 32.3 31.486 32.48 30.938 32.6 C 30.39 32.71 29.843 32.78 29.284 32.78 C 28.715 32.79 28.145 32.73 27.576 32.62 C 26.963 32.5 26.373 32.33 25.793 32.1 L 25.793 32.1 C 24.974 31.78 24.592 30.899 24.938 30.135 L 24.938 30.135 C 25.285 29.371 26.231 29.014 27.049 29.34 L 27.049 29.34 C 27.436 29.49 27.834 29.61 28.253 29.69 C 28.575 29.75 28.919 29.78 29.262 29.78 C 29.574 29.78 29.896 29.74 30.208 29.68 C 30.541 29.6 30.863 29.5 31.175 29.36 Z " fill="url(#_lgradient_2)"/><linearGradient id="_lgradient_3" x1="0" y1="0.5" x2="0.9074880558539661" y2="0.9200778838291643" gradientTransform="matrix(4,0,0,4,22.215,36.49)" gradientUnits="userSpaceOnUse"><stop offset="0%" stop-opacity="1" style="stop-color:rgb(78,84,200)"/><stop offset="83.88839793817618%" stop-opacity="1" style="stop-color:rgb(0,114,255)"/></linearGradient><circle vector-effect="non-scaling-stroke" cx="24.214999999999996" cy="38.4903490576288" r="2" fill="url(#_lgradient_3)"/></svg>
